icons/linear-ele-communication-phone-outline-telephone-sound.svg

<svg xmlns="http://www.w3.org/2000/svg" width="32px" height="32px" viewBox="0 0 32 32" version="1.1">
    <title>linear-ele-communication-phone-outline-telephone-sound</title>
    <g id="linear-ele-communication-phone-outline-telephone-sound" stroke-width="1" fill-rule="evenodd">
        <path d="M7.20710678,4.29289322 L12.2071068,9.29289322 C12.511467,9.59725348 12.5869215,10.0622249 12.3944272,10.4472136 L11.217,12.802 L19.197,20.782 L21.5527864,19.6055728 C21.8992762,19.4323279 22.3105521,19.4761216 22.611221,19.7084914 L22.7071068,19.7928932 L27.7071068,24.7928932 C28.205091,25.2908774 28.0460281,26.1338783 27.4008188,26.4161573 L19.4008188,29.9161573 C19.0236844,30.0811536 18.5839724,29.9981859 18.2928932,29.7071068 L2.29289322,13.7071068 C2.00181405,13.4160276 1.91884635,12.9763156 2.08384267,12.5991812 L5.58384267,4.59918117 C5.86612173,3.95397187 6.70912259,3.79490903 7.20710678,4.29289322 Z M6.828,6.743 L4.19,12.775 L19.224,27.809 L25.256,25.171 L21.802,21.717 L19.4472136,22.8944272 C19.1007238,23.0676721 18.6894479,23.0238784 18.388779,22.7915086 L18.2928932,22.7071068 L9.29289322,13.7071068 C8.98853296,13.4027465 8.91307848,12.9377751 9.10557281,12.5527864 L10.282,10.197 L6.828,6.743 Z M16,8 C20.418278,8 24,11.581722 24,16 C24,16.5522847 23.5522847,17 23,17 C22.4477153,17 22,16.5522847 22,16 C22,12.6862915 19.3137085,10 16,10 C15.4477153,10 15,9.55228475 15,9 C15,8.44771525 15.4477153,8 16,8 Z M16,2 C23.7319865,2 30,8.2680135 30,16 C30,16.5522847 29.5522847,17 29,17 C28.4477153,17 28,16.5522847 28,16 C28,9.372583 22.627417,4 16,4 C15.4477153,4 15,3.55228475 15,3 C15,2.44771525 15.4477153,2 16,2 Z" id="&#24418;&#29366;" fill-rule="nonzero" />
    </g>
</svg>

<svg xmlns="http://www.w3.org/2000/svg" viewBox="0 0 32 32"><path fill="currentColor" d="m7.207 4.293 5 5a1 1 0 0 1 .187 1.154l-1.177 2.355 7.98 7.98 2.356-1.176a1 1 0 0 1 1.058.102l.096.085 5 5a1 1 0 0 1-.306 1.623l-8 3.5a1 1 0 0 1-1.108-.209l-16-16a1 1 0 0 1-.21-1.108l3.5-8a1 1 0 0 1 1.624-.306m-.379 2.45L4.19 12.775l15.034 15.034 6.032-2.638-3.454-3.454-2.355 1.177a1 1 0 0 1-1.058-.102l-.096-.085-9-9a1 1 0 0 1-.187-1.154l1.176-2.356zM16 8a8 8 0 0 1 8 8 1 1 0 0 1-2 0 6 6 0 0 0-6-6 1 1 0 0 1 0-2m0-6c7.732 0 14 6.268 14 14a1 1 0 0 1-2 0c0-6.627-5.373-12-12-12a1 1 0 0 1 0-2"/></svg>
